icons/reserved-line.svg

<svg viewBox="0 0 24 24" fill="currentColor" xmlns="http://www.w3.org/2000/svg">
    <path d="M13 15V19H16V21H8V19H11V15H4C3.44772 15 3 14.5523 3 14V4C3 3.44772 3.44772 3 4 3H20C20.5523 3 21 3.44772 21 4V14C21 14.5523 20.5523 15 20 15H13ZM5 13H19V5H5V13ZM8 8H16V10H8V8Z"/>
</svg>

<svg xmlns="http://www.w3.org/2000/svg" viewBox="0 0 24 24">
    <g>
        <path fill="none" d="M0 0h24v24H0z"/>
        <path fill-rule="nonzero" d="M13 15v4h3v2H8v-2h3v-4H4a1 1 0 0 1-1-1V4a1 1 0 0 1 1-1h16a1 1 0 0 1 1 1v10a1 1 0 0 1-1 1h-7zm-8-2h14V5H5v8zm3-5h8v2H8V8z"/>
    </g>
</svg>
